Yaru++/actions/16/draw-path.svg

<svg viewBox="0 0 24 24" xmlns="http://www.w3.org/2000/svg"><path d="m4 4v3h1v7.996094l-.9960938.996094h-.0039062v4.007812h1 2 1.0078125v-.003906l1-1h7.9921875v1.003906h3v-3h-3v1h-6.996094l9.996094-9.9960938-.001953-.0019531.001953-.0019531-4-4-.001953.0019531-.001953-.0019531-9.996094 9.996094v-6.996094h1v-3zm1 1h1v1h-1zm10.998047.4121094 2.589844 2.5898437-2 1.9999999-6.7929691 6.792969-.7949219-.794922-1.7949219-1.794922 6.7929689-6.7929686zm2.001953 12.5878906h1v1h-1z" fill="#808080"/></svg>

<svg xmlns="http://www.w3.org/2000/svg" viewBox="0 0 24 24">
 <defs>
  <style id="current-color-scheme" type="text/css">
   .ColorScheme-Text { color:#808080; }
  </style>
 </defs>
 <path fill="#808080" class="ColorScheme-Text" d="M 4 4 L 4 7 L 5 7 L 5 14.996094 L 4.0039062 15.992188 L 4 15.992188 L 4 20 L 5 20 L 7 20 L 8.0078125 20 L 8.0078125 19.996094 L 9.0078125 18.996094 L 17 18.996094 L 17 20 L 20 20 L 20 17 L 17 17 L 17 18 L 10.003906 18 L 20 8.0039062 L 19.998047 8.0019531 L 20 8 L 16 4 L 15.998047 4.0019531 L 15.996094 4 L 6 13.996094 L 6 7 L 7 7 L 7 4 L 4 4 z M 5 5 L 6 5 L 6 6 L 5 6 L 5 5 z M 15.998047 5.4121094 L 18.587891 8.0019531 L 16.587891 10.001953 L 9.7949219 16.794922 L 9 16 L 7.2050781 14.205078 L 13.998047 7.4121094 L 15.998047 5.4121094 z M 18 18 L 19 18 L 19 19 L 18 19 L 18 18 z"/>
</svg>
